img/menu/m-icons-cat5.svg

<svg width="24" height="24" viewBox="0 0 24 24" fill="none" xmlns="http://www.w3.org/2000/svg">
<path fill-rule="evenodd" clip-rule="evenodd" d="M5 19V5H19V19H5ZM3 4C3 3.44772 3.44772 3 4 3L20 3C20.5523 3 21 3.44772 21 4V20C21 20.5523 20.5523 21 20 21H4C3.44772 21 3 20.5523 3 20L3 4ZM12 16C9.79086 16 8 14.2091 8 12C8 9.79086 9.79086 8 12 8C14.2091 8 16 9.79086 16 12C16 14.2091 14.2091 16 12 16ZM6 12C6 8.68629 8.68629 6 12 6C15.3137 6 18 8.68629 18 12C18 15.3137 15.3137 18 12 18C8.68629 18 6 15.3137 6 12ZM11 12C11 12.5523 10.5523 13 10 13C9.44772 13 9 12.5523 9 12C9 11.4477 9.44772 11 10 11C10.5523 11 11 11.4477 11 12ZM14 13C14.5523 13 15 12.5523 15 12C15 11.4477 14.5523 11 14 11C13.4477 11 13 11.4477 13 12C13 12.5523 13.4477 13 14 13Z" fill="#034899"/>
</svg>

<svg width="24" height="24" fill="none" xmlns="http://www.w3.org/2000/svg"><path fill-rule="evenodd" clip-rule="evenodd" d="M5 19V5h14v14H5zM3 4a1 1 0 0 1 1-1h16a1 1 0 0 1 1 1v16a1 1 0 0 1-1 1H4a1 1 0 0 1-1-1V4zm9 12a4 4 0 1 1 0-8 4 4 0 0 1 0 8zm-6-4a6 6 0 1 1 12 0 6 6 0 0 1-12 0zm5 0a1 1 0 1 1-2 0 1 1 0 0 1 2 0zm3 1a1 1 0 1 0 0-2 1 1 0 0 0 0 2z" fill="#034899"/></svg>
